X: 17984
T: Hugh Smith's
R: reel
M: 4/4
K: Gmajor
|:dafa g2 fe|dedB (3cBA FA|GDB,A, G,A,B,D|G3 A BAAB|da (3fga g3 a|
bgag fdde|1 fbaf g3 e|dBAd BGGB:|2 fbaf (3gab ag|fdcA BGBc||
|:d2 ed cAdc|(3Bcd Bd cBFA|GBef gefg|abag fdef|
[1 gedg edBA|G2 BG AGED|EedB (3cBA ag|fdcA BGBc:|
[2 gedg ed (3Bcd|g2 bg aged|cgec (3Bcd ge|dBAd B2 A2|G4||

